X: 0762
M: 4/4
L: 1/8
K: D
g | f>ed<e d/d/d f2 | d<ef>d e>EE<g | f>ed<e d/d/d f2 | B<dAG FDD ||
g | f>ed<e d/d/d f2 | d>ef>d e>EE<g | f>be>f d>ec>d | B<dA>G FDD |]

